brandFactory_export/1.Light/Telefonía fija_Teléfono_Llamar_1Light.svg

<?xml version="1.0" encoding="UTF-8"?>
<svg width="24px" height="24px" viewBox="0 0 24 24" version="1.1" xmlns="http://www.w3.org/2000/svg" xmlns:xlink="http://www.w3.org/1999/xlink">
    <title>1.Light/Telefonía fija_Teléfono_Llamar_1Light</title>
    <g id="Symbols" stroke="none" stroke-width="1" fill="none" fill-rule="evenodd">
        <g id="1.Light/Telefonía-fija_Teléfono_Llamar_1Light" fill="#5CB615" fill-rule="nonzero">
            <path d="M18.810084,23.6302521 C17.7848739,23.6302521 16.605042,23.3747899 15.3210084,22.8638655 C12.6621849,21.8016807 9.74789916,19.7310924 6.8907563,16.8773109 L6.88739496,16.8739496 L6.78991597,16.7764706 L6.78991597,16.7731092 C3.93277311,13.9159664 1.86218487,11.0016807 0.803361345,8.34285714 C-0.18487395,5.87226891 -0.221848739,3.78151261 0.692436975,2.45714286 C0.695798319,2.45042017 0.702521008,2.44369748 0.705882353,2.44033613 L0.72605042,2.41344538 C1.03193277,1.98655462 1.30756303,1.65714286 1.5394958,1.43529412 C3.51932773,-0.457142857 5.48235294,-0.453781513 7.37815126,1.43865546 C7.73445378,1.78823529 8.04369748,2.17815126 8.29915966,2.60840336 C9.54957983,4.61848739 8.52773109,6.32605042 7.4487395,7.40168067 C7.25378151,7.6 7.04537815,7.78151261 6.82689076,7.95294118 C6.46722689,8.37983193 6.94117647,9.27394958 7.40504202,9.94957983 C8.16806723,11.0621849 9.43193277,12.3663866 10.312605,13.2470588 L10.4168067,13.3512605 C11.3008403,14.2352941 12.6016807,15.4957983 13.7142857,16.2588235 C14.3932773,16.7226891 15.2840336,17.1966387 15.7109244,16.8369748 C15.8789916,16.6184874 16.0638655,16.410084 16.2621849,16.2151261 C17.3411765,15.1394958 19.0453782,14.1176471 21.0554622,15.3647059 C21.4823529,15.6201681 21.8756303,15.9294118 22.2252101,16.2857143 C24.1176471,18.1815126 24.1210084,20.1445378 22.2285714,22.1243697 C22.0033613,22.3596639 21.6739496,22.6319328 21.2504202,22.9411765 L21.2235294,22.9613445 L21.2067227,22.9747899 C20.5714286,23.4117647 19.7579832,23.6302521 18.810084,23.6302521 Z M7.36806723,16.4033613 C10.1613445,19.1932773 12.994958,21.2134454 15.5697479,22.2386555 C16.7193277,22.6991597 17.7714286,22.9378151 18.6957983,22.9579832 C19.5630252,22.9747899 20.2756303,22.7966387 20.8168067,22.4235294 L20.8605042,22.3932773 C21.2537815,22.1109244 21.5495798,21.8621849 21.7445378,21.6605042 C22.5882353,20.7764706 22.9915966,19.9495798 22.9781513,19.1327731 C22.9647059,18.3495798 22.5613445,17.5731092 21.7512605,16.7630252 C21.4420168,16.4470588 21.0957983,16.1747899 20.7159664,15.9462185 L20.7058824,15.9394958 C20.0638655,15.5394958 19.4117647,15.3915966 18.7731092,15.4991597 C18.097479,15.6134454 17.4151261,16.0134454 16.7361345,16.692437 C16.5512605,16.8773109 16.3798319,17.0722689 16.2218487,17.2773109 C16.2117647,17.2907563 16.1983193,17.3042017 16.1848739,17.3176471 C14.9243697,18.4773109 12.4403361,16.3260504 9.9394958,13.8252101 L9.83529412,13.7210084 C7.33445378,11.2201681 5.18319328,8.73613445 6.34285714,7.47563025 C6.35630252,7.46218487 6.36638655,7.4487395 6.38319328,7.43865546 C6.59159664,7.28067227 6.78655462,7.1092437 6.96806723,6.92436975 C7.64369748,6.2487395 8.04705882,5.56302521 8.16134454,4.88739496 C8.26890756,4.2487395 8.1210084,3.6 7.7210084,2.95462185 L7.71428571,2.94453782 C7.48907563,2.56470588 7.21344538,2.21848739 6.89747899,1.9092437 C6.08739496,1.09915966 5.31092437,0.695798319 4.52773109,0.682352941 C3.71764706,0.668907563 2.8907563,1.07563025 2.00672269,1.91932773 C1.80168067,2.11428571 1.55630252,2.41344538 1.27394958,2.80336134 C1.2605042,2.82016807 1.25042017,2.83361345 1.24369748,2.84705882 C0.87394958,3.38823529 0.692436975,4.10084034 0.709243697,4.96806723 C0.72605042,5.89243697 0.968067227,6.94453782 1.42857143,8.09411765 C2.45714286,10.6689076 4.47394958,13.5058824 7.26722689,16.2957983 L7.31764706,16.3462185 L7.32436975,16.3529412 L7.36806723,16.4033613 Z" id="Telefonía-fija_Teléfono_Llamar_1Light"></path>
        </g>
    </g>
</svg>

<svg width="24" height="24" viewBox="0 0 24 24" xmlns="http://www.w3.org/2000/svg"><path d="M18.81 23.63c-1.025 0-2.205-.255-3.489-.766-2.659-1.062-5.573-3.133-8.43-5.987l-.004-.003-.097-.098v-.003c-2.857-2.857-4.928-5.771-5.987-8.43-.988-2.47-1.025-4.561-.11-5.886.003-.007.01-.013.013-.017l.02-.027c.306-.426.582-.756.813-.978C3.52-.457 5.482-.454 7.38 1.44c.355.35.665.74.92 1.17 1.25 2.01.229 3.717-.85 4.793a6.45 6.45 0 01-.622.55c-.36.428.114 1.322.578 1.998.763 1.112 2.027 2.416 2.908 3.297l.104.104c.884.884 2.185 2.145 3.297 2.908.68.464 1.57.938 1.997.578.168-.219.353-.427.551-.622 1.08-1.076 2.783-2.097 4.793-.85.427.255.82.564 1.17.92 1.893 1.897 1.896 3.86.004 5.84-.226.235-.555.507-.979.816l-.026.02-.017.014c-.636.437-1.449.655-2.397.655zM7.368 16.403c2.793 2.79 5.627 4.81 8.202 5.836 1.15.46 2.201.699 3.126.719.867.017 1.58-.161 2.12-.534l.045-.03a6.71 6.71 0 00.884-.733c.843-.885 1.247-1.711 1.233-2.528-.013-.783-.417-1.56-1.227-2.37a5.181 5.181 0 00-1.035-.817l-.01-.007c-.642-.4-1.294-.547-1.933-.44-.676.114-1.358.514-2.037 1.193a6.04 6.04 0 00-.514.585.403.403 0 01-.037.04c-1.26 1.16-3.745-.99-6.246-3.492l-.104-.104c-2.5-2.5-4.652-4.985-3.492-6.245.013-.014.023-.027.04-.037.209-.158.404-.33.585-.515.676-.675 1.08-1.361 1.193-2.037.108-.638-.04-1.287-.44-1.932l-.007-.01c-.225-.38-.5-.727-.817-1.036C6.087 1.1 5.311.696 4.527.682c-.81-.013-1.636.394-2.52 1.237-.205.195-.45.494-.733.884a.259.259 0 00-.03.044c-.37.541-.552 1.254-.535 2.121.017.924.26 1.977.72 3.126 1.028 2.575 3.045 5.412 5.838 8.202l.05.05.007.007.044.05z" fill="#5CB615" fill-rule="nonzero"/></svg>
